X:106
T:O what a foolish Girl was I
Z:Jack Campin - http://www.campin.me.uk
S:Blaikie MS (NLS MS.1578) p31, Blaikie #100
M:3/4
L:1/8
V:1 midi program 1 74
V:2 midi program 1 46 bass middle = d transpose -24
Q:1/4=80
K:C
[V:1] G2|cA G2 GA|cc        d2 ec |de  d2 dc|de c2
[V:2] z2|cf e2 c2|c2        g2 c'2|b2  b2 g2|g2 c'2
%
[V:1] cG|cE E2 DC|E/F/G/A/ _B2 AG |cA _BA GA|GE C2|]
[V:2] c2|c2 c2 c2|c2        e2 c2 |cf  ef g2|c2 c2|]
W:Transcription (c) Jack Campin 2009, no mirroring or republication without permission

